X: 3175
Q: "Strathspey."
M: C
L: 1/16
K: Bb
vBF3F3D BF3Fd3 | dF3F3D (B,C)DE TF4 |\
f3de3c d3B (dc)BA | BF3 GFED (CD)EF G2 |]\
(Bc)de f3b d3bf3b | f3Bd3c (Bc)de f4 |\
(Bc)de f3b d3bf3b |
b3ag3d (cd)ef g4 |\
(Bc)de f3b d3bf3b | f3Bd3B (Bc)de f4 |\
d3f edcB (dc)BA (cB)AG | (BA)GF (GF)ED (CD)EF G2 |]


